X:110
T:Hop, Skip, Jump! #2
R:slide
C:Maire Breathnach
S:Sharon Shannon, Maire Breatnach, Mary Custy, Siobhan Peoples on Youtube
Z:id:hn-slide-110
M:6/8
L:1/8
K:D
D2F A2d | B2A F2E | DFA d2e | f3 fgf |
e2d B2d | A2F D2E | FED A2F |1 E3 EFE :|2 E3 e2f |
|: g2f edB | AFA d2e | f2e ede | f2B b2a |
g2f edB | AFA d2e | fed BAF |1 E3 e2f :|2 E3 EFE ||

